lg/web.dev-icon.svg

<svg viewBox="0 0 256 218" version="1.1" xmlns="http://www.w3.org/2000/svg" preserveAspectRatio="xMidYMid" height="1em" width="1em">
  <g>
    <path d="M226.859029,160.159256 L140.550803,160.159256 C139.581048,160.159256 137.641537,160.159256 136.671782,161.129011 L71.6981731,212.526045 C70.7284178,213.4958 70.7284178,214.465556 71.6981731,215.435311 C71.6981731,216.405066 72.6679285,216.405066 73.6376838,216.405066 L227.828784,216.405066 C243.34487,216.405066 256.921445,202.828491 255.951689,186.342651 C254.981934,170.826565 241.405359,160.159256 226.859029,160.159256" fill="#00C9DB"/>
    <path d="M156.445093,106.017815 C155.475338,98.2597722 151.596316,90.5017294 145.777784,85.6529526 L45.8929833,6.13301401 C33.2861638,-3.56453948 15.8305675,-1.62502879 6.13301401,10.9817908 C-3.56453948,23.5886103 -1.62502879,41.0442066 10.9817908,50.7417601 L83.7134419,108.927081 L10.9817908,167.112402 C-1.62502879,176.809955 -3.56453948,194.265552 6.13301401,206.872371 C15.8305675,219.479191 33.2861638,221.418701 45.8929833,211.721148 L145.777784,130.261699 C152.566072,124.443167 156.445093,116.685124 156.445093,107.957326 L156.445093,106.017815" fill="#0D55FF"/>
    <path d="M255.951689,188.282161 C255.951689,203.798247 243.34487,216.405066 227.828784,216.405066 C212.312699,216.405066 199.705879,203.798247 199.705879,188.282161 C199.705879,172.766076 212.312699,160.159256 227.828784,160.159256 C243.34487,160.159256 255.951689,172.766076 255.951689,188.282161" fill="#7000F2"/>
  </g>
</svg>

<svg viewBox="0 0 256 218" xmlns="http://www.w3.org/2000/svg" preserveAspectRatio="xMidYMid" height="1em" width="1em">
  <path d="M226.859 160.16h-86.308c-.97 0-2.91 0-3.88.969l-64.973 51.397c-.97.97-.97 1.94 0 2.91 0 .97.97.97 1.94.97h154.19c15.517 0 29.093-13.578 28.124-30.063-.97-15.516-14.547-26.184-29.093-26.184" fill="#00C9DB"/>
  <path d="M156.445 106.018c-.97-7.758-4.849-15.516-10.667-20.365L45.893 6.133c-12.607-9.698-30.062-7.758-39.76 4.849-9.698 12.607-7.758 30.062 4.849 39.76l72.731 58.185-72.731 58.185c-12.607 9.698-14.547 27.154-4.849 39.76 9.698 12.607 27.153 14.547 39.76 4.85l99.885-81.46c6.788-5.819 10.667-13.577 10.667-22.305v-1.94" fill="#0D55FF"/>
  <path d="M255.952 188.282c0 15.516-12.607 28.123-28.123 28.123-15.516 0-28.123-12.607-28.123-28.123 0-15.516 12.607-28.123 28.123-28.123 15.516 0 28.123 12.607 28.123 28.123" fill="#7000F2"/>
</svg>
